public/pictures/image.svg

<svg width="24" height="24" xmlns="http://www.w3.org/2000/svg">

 <g>
  <title>background</title>
  <rect fill="none" id="canvas_background" height="402" width="582" y="-1" x="-1"/>
 </g>
 <g>
  <title>Layer 1</title>
  <path fill="#444444" id="svg_1" d="m19.235,1.75l-14.47,0c-1.662,0 -3.015,1.352 -3.015,3.015l0,14.471c0,1.662 1.352,3.015 3.015,3.015l14.471,0c1.662,0 3.015,-1.352 3.015,-3.015l0,-14.471c-0.001,-1.663 -1.353,-3.015 -3.016,-3.015zm1.809,17.485c0,0.997 -0.811,1.809 -1.809,1.809l-14.47,0c-0.997,0 -1.809,-0.811 -1.809,-1.809l0,-2.181l4.866,-5.407l6.573,5.975l3.635,-3.029l3.015,2.512l0,2.13l-0.001,0zm0,-3.699l-3.015,-2.512l-3.601,3l-6.691,-6.084l-4.781,5.312l0,-10.487c0,-0.997 0.811,-1.809 1.809,-1.809l14.471,0c0.997,0 1.809,0.811 1.809,1.809l0,10.771l-0.001,0z"/>
  <path fill="#444444" id="svg_2" d="m16.221,10.794c1.662,0 3.015,-1.352 3.015,-3.015s-1.352,-3.015 -3.015,-3.015c-1.662,0 -3.015,1.352 -3.015,3.015s1.352,3.015 3.015,3.015zm0,-4.823c0.997,0 1.809,0.811 1.809,1.809s-0.811,1.809 -1.809,1.809s-1.809,-0.811 -1.809,-1.809s0.811,-1.809 1.809,-1.809z"/>
 </g>
</svg>

<?xml version="1.0" ?><svg id="Layer_1" style="enable-background:new 0 0 24 24;" version="1.1" fill="#444" viewBox="0 0 24 24" xml:space="preserve" xmlns="http://www.w3.org/2000/svg" xmlns:xlink="http://www.w3.org/1999/xlink"><path d="M19.235,1.75H4.765c-1.662,0-3.015,1.352-3.015,3.015v14.471c0,1.662,1.352,3.015,3.015,3.015h14.471  c1.662,0,3.015-1.352,3.015-3.015V4.765C22.25,3.102,20.898,1.75,19.235,1.75z M21.044,19.235c0,0.997-0.811,1.809-1.809,1.809  H4.765c-0.997,0-1.809-0.811-1.809-1.809v-2.181l4.866-5.407l6.573,5.975l3.635-3.029l3.015,2.512V19.235z M21.044,15.536  l-3.015-2.512l-3.601,3L7.737,9.94l-4.781,5.312V4.765c0-0.997,0.811-1.809,1.809-1.809h14.471c0.997,0,1.809,0.811,1.809,1.809  V15.536z"/><path d="M16.221,10.794c1.662,0,3.015-1.352,3.015-3.015s-1.352-3.015-3.015-3.015c-1.662,0-3.015,1.352-3.015,3.015  S14.558,10.794,16.221,10.794z M16.221,5.971c0.997,0,1.809,0.811,1.809,1.809s-0.811,1.809-1.809,1.809s-1.809-0.811-1.809-1.809  S15.223,5.971,16.221,5.971z"/></svg>
